src/symbols/geometric/1F53B.svg

<svg id="emoji" viewBox="0 0 72 72" xmlns="http://www.w3.org/2000/svg">
  <g id="grid">
    <path fill="#b3b3b3" d="M68,4V68H4V4H68m4-4H0V72H72V0Z"/>
    <path fill="none" stroke="#00a5ff" stroke-miterlimit="10" stroke-width="0.1" d="M12.923,10.9583H59.0769A1.9231,1.9231,0,0,1,61,12.8814V59.0352a1.9231,1.9231,0,0,1-1.9231,1.9231H12.9231A1.9231,1.9231,0,0,1,11,59.0352V12.8813A1.923,1.923,0,0,1,12.923,10.9583Z"/>
    <rect x="16" y="4" rx="2.2537" width="40" height="64" fill="none" stroke="#00a5ff" stroke-miterlimit="10" stroke-width="0.1"/>
    <rect x="16" y="4" rx="2.2537" width="40" height="64" transform="translate(72) rotate(90)" fill="none" stroke="#00a5ff" stroke-miterlimit="10" stroke-width="0.1"/>
    <circle cx="36" cy="36" r="29" fill="none" stroke="#00a5ff" stroke-miterlimit="10" stroke-width="0.1"/>
  </g>
  <g id="color">
    <path fill="#EA5A47" stroke="none" d="M38.4549,57.1464l22.2257-38.4961c1.0911-1.8898-0.2728-4.252-2.4549-4.252l-44.4514,0 c-2.1821,0-3.5459,2.3622-2.4549,4.252l22.2257,38.4961C34.6362,59.0362,37.3638,59.0362,38.4549,57.1464z"/>
  </g>
  <g id="hair"/>
  <g id="skin"/>
  <g id="skin-shadow"/>
  <g id="line">
    <path fill="none" stroke="#000000" stroke-miterlimit="10" stroke-width="2" d="M38.4549,57.1464l22.2257-38.4961 c1.0911-1.8898-0.2728-4.252-2.4549-4.252l-44.4514,0c-2.1821,0-3.5459,2.3622-2.4549,4.252l22.2257,38.4961 C34.6362,59.0362,37.3638,59.0362,38.4549,57.1464z"/>
  </g>
</svg>

<svg id="emoji" version="1.1" viewBox="0 0 72 72" xmlns="http://www.w3.org/2000/svg">
 <g id="grid">
  <path d="M68,4V68H4V4H68m4-4H0V72H72V0Z" fill="#b3b3b3"/>
  <path d="m12.92 10.96h46.15a1.923 1.923 0 0 1 1.923 1.923v46.15a1.923 1.923 0 0 1-1.923 1.923h-46.15a1.923 1.923 0 0 1-1.923-1.923v-46.15a1.923 1.923 0 0 1 1.923-1.923z" fill="none" stroke="#00a5ff" stroke-miterlimit="10" stroke-width=".1"/>
  <rect x="16" y="4" width="40" height="64" rx="2.254" fill="none" stroke="#00a5ff" stroke-miterlimit="10" stroke-width=".1"/>
  <rect transform="translate(72) rotate(90)" x="16" y="4" width="40" height="64" rx="2.254" fill="none" stroke="#00a5ff" stroke-miterlimit="10" stroke-width=".1"/>
  <circle cx="36" cy="36" r="29" fill="none" stroke="#00a5ff" stroke-miterlimit="10" stroke-width=".1"/>
 </g>
 <g id="color">
  <path d="m38.45 57.15 22.23-38.5c1.091-1.89-0.2728-4.252-2.455-4.252h-44.45c-2.182 0-3.546 2.362-2.455 4.252l22.23 38.5c1.091 1.89 3.819 1.89 4.91 0z" fill="#d22f27"/>
 </g>
 <g id="line">
  <path d="m38.45 57.15 22.23-38.5c1.091-1.89-0.2728-4.252-2.455-4.252h-44.45c-2.182 0-3.546 2.362-2.455 4.252l22.23 38.5c1.091 1.89 3.819 1.89 4.91 0z" fill="none" stroke="#000" stroke-miterlimit="10" stroke-width="2"/>
 </g>
</svg>
